X:252
T:Example 2d.
M:6/8
L:1/8
S:Bruce & Emmett's Drummers and Fifers Guide (1862), p. 25
K:D
fg|afd ded|=cAB c2d|=cAF GFG|Adc d::de dfa afd|dfa a2f|
"_This example will show the pupil that the natural effects the notes only in the bar wherein it is written."gfg afd|cde efg|afd ded|=cAB c2d|=cAF GFG|Adc d2:||
